X:6150
T:Soldiers Joy Reel. GHW.014
O:england
M:2/4
L:1/8
Q:350
S:George H.Watson,MS,Swanton Abbott,Norfolk,1850-1880
R:Reel
A:Norfolk
N:DC marked at end of each part in M
N:Last bar marked 'fine
K:D
dB|AFDF AFDF|A2d2d2(cB)|AFDF AFDF|G2E2E2 dB|
AFDF AFDF|A2d2d2g2|fafd egec|d2d2d2||
g2|fdfg fagf|ecAc egfe|fdfg fagf|edcB A2g2|
fdfg fagf|ecAc egfe|fafd egec
|d2d2d2||z3/ "FINE"[d/F/] [d6F6]||


